X:66
T:Oh, Wert Thou in the Cauld Blast
% Four-part piano arrangement for standard notation.
C:Robert Burns/F. Mendelssohn
S:Source "The One Hundred and One Best Songs" - The Cable Company - 1919 - Chicago, Illinois
M:3/4
L:1/8
Q:1/4=88
%%staves [(1 2) (3 4)]
K:Bb
V:1 clef=treble
F2 G F F B | (c > d) d3 f | d > c c3 d | B > A A3
w:1.~Oh, wert thou in the cauld* blast, On yon-der lea, On yon-der lea,
w:2.~Oh, wert thou in the wild-est waste, Sae bleak and bar, Sae bleak and bare,
V:2 clef=treble
D2 E D D D | (F > F) F3 F | F > F F3 F | F > F F3
V:3 clef=bass
%%MIDI transpose -24
%%jsastem=dn
b2 b b b b | (a > b) b3 d' | b > a a3 b | d' > c' c'3
V:4 clef=bass
%%MIDI transpose -24
%%jsastem=dn
B2 B B B B | (f > f) B3 B | f > f f3 f | f > f f3
V:1
F | F > F G F B F | G4-G e | c > B B3 F | E > D D4 |
w:My plai-die to the an-gry airt,_ I'd shel-ter thee, I'd shel-ter thee;
w:The des-ert were a Par-a-dise_ If thou wert there, If thou wert there;
V:2
E | D > D E D D D | E4-E G | E > D D3 D | C > B, B,4 |
V:3
a | b > b b b b b | (b2(=b2)c') c' | a > b b3 b | a > f f4 |
V:4
f | B > B B B B B | e4- e e | f > B B3 B | f > B B4 |
V:1
z D G B d B | A > c B3 d | d > c B2 z A | {c}B > A B4 |
w:Or did mis-for-tune's bit-ter storms A-round thee blaw, A-round thee blaw,
w:Or were I mon-arch of the globe, With thee to reign, With thee to reign,
V:2
z B, D G B G | ^F > A G3 B | B > A G2 z ^F | G > ^F G4 |
V:3
b2 b b g b | e' > c' d'3 d' | e' > e' d'2 z d' | d' > d' d'4 |
V:4
G2 g g g g | g > g g3 g | c > c d2 z d | g > g g4 |
V:1
z B B B A G | FG A3 d | c > B B3 F | E > D D4 |]
w:Thy shield should be my bos\-* om, To share it a', To share it a'.
w:The bright-est jewel in my* crown Wad be my queen, Wad be my queen.
V:2
z G G G C C | C2 F3 F | E > D D3 D | C > B, B,4 |]
V:3
_d'2 _d' _d' b b | ab c'3 a | a > b b3 b | a > f f4 |]
V:4
=e2 =e =e =e =e | f2 f3 f | B > B B3 B | F > B B4 |]

